src/images/follow.svg

<svg id="Calque_1" data-name="Calque 1" xmlns="http://www.w3.org/2000/svg" viewBox="0 0 2575.46 1029.89"><defs><style>.cls-1{fill:#ff214d;}.cls-2{isolation:isolate;}.cls-3{fill:#5176d2;}</style></defs><title>follow</title><path class="cls-1" d="M2126.62,1305.39l-155.13-168.9c-14.24-15.48-37.32-15.48-51.57,0s-14.17,40.61,0,56.09l93,101.19h-80.72l-144.45-157.28c-14.25-15.48-37.32-15.48-51.57,0s-14.17,40.61,0,56.09l93,101.19L766.73,1263.38c-20.12,0-29.45,40.55-29.45,62.45s3.75,57.89,23.86,57.89l1068.1-10.64-93,101.2c-14.17,15.48-14.17,40.59,0,56.08a34.44,34.44,0,0,0,51.57,0l144.45-157.28H2013l-93,101.2c-14.17,15.48-14.17,40.59,0,56.08a34.44,34.44,0,0,0,51.57,0l155.13-168.89C2140.87,1346,2140.87,1320.87,2126.62,1305.39Z" transform="translate(-149.23 -512.08)"/><g class="cls-2"><path class="cls-3" d="M345.12,512.15l-84.35,315h-23.3l-88.24-315h19.84L249,797.34l76.39-285.19Z" transform="translate(-149.23 -512.08)"/><path class="cls-3" d="M682.56,669.81c0,86.74-70.57,157.32-157.31,157.32S367.93,756.55,367.93,669.81,438.5,512.5,525.25,512.5,682.56,583.07,682.56,669.81Zm-19.11,0c0-76.21-62-138.21-138.2-138.21S387,593.6,387,669.81,449,808,525.25,808,663.45,746,663.45,669.81Z" transform="translate(-149.23 -512.08)"/><path class="cls-3" d="M705.43,827.1v-315h19.11v315Z" transform="translate(-149.23 -512.08)"/><path class="cls-3" d="M855.68,649.71l-4.94-4.4-5.17,6.32a84.19,84.19,0,0,1-64.07,29.46c-2.69,0-5.61-.26-8.12-.5l-7-.69V827.12h-19.1v-315l34.22,0A84.28,84.28,0,0,1,861.33,624l-1.47,4.28,3.55,2.79a109.13,109.13,0,0,1,41.71,86.21V827.13H886V717.29A90.68,90.68,0,0,0,855.68,649.71Zm-8.82-53.07a65.43,65.43,0,0,0-65.36-65.35H766.38V654.92l.45,5.58,5.44.79c.46.08.9.16,1.3.2a65.4,65.4,0,0,0,73.29-64.85Z" transform="translate(-149.23 -512.08)"/><path class="cls-3" d="M1081.82,512.31V808h97.51v19.11H1062.71V512.31Z" transform="translate(-149.23 -512.08)"/><path class="cls-3" d="M1352.79,744.27H1244.2L1222,827.15h-19.78L1286.6,512.2l21-.11,88.24,315.06H1376l-23.21-82.87Zm-103.47-19.11h98.12l-50.16-179Z" transform="translate(-149.23 -512.08)"/><path class="cls-3" d="M1704.77,512.24v19.13c-73.36,3.34-132,64.06-132,138.23a138.41,138.41,0,0,0,121.69,137.33l7.13.87V680.38h-54V661.27h73.08V827h-9.55c-86.84,0-157.49-70.63-157.49-157.45C1553.65,584.89,1620.87,515.59,1704.77,512.24Z" transform="translate(-149.23 -512.08)"/><path class="cls-3" d="M1894.12,744.27H1785.54l-22.21,82.88h-19.78l84.38-314.95,21-.11,88.24,315.06h-19.83l-23.22-82.87Zm-103.46-19.11h98.11l-50.15-179Z" transform="translate(-149.23 -512.08)"/><path class="cls-3" d="M1979.1,512.31V808h97.51v19.11H1960V512.31Z" transform="translate(-149.23 -512.08)"/><path class="cls-3" d="M2118.6,512.31V808h97.51v19.11H2099.49V512.31Z" transform="translate(-149.23 -512.08)"/><path class="cls-3" d="M2258.1,531.19v130h93.47v19.11H2258.1V808h101.21v19.11H2239v-315h120.32v19.11Z" transform="translate(-149.23 -512.08)"/><path class="cls-3" d="M2490.49,649.71l-4.93-4.4-5.18,6.32a84.17,84.17,0,0,1-64.06,29.46c-2.7,0-5.61-.26-8.13-.5l-7-.69V827.12h-19.11v-315l34.23,0A84.26,84.26,0,0,1,2496.14,624l-1.46,4.28,3.54,2.79a109.1,109.1,0,0,1,41.71,86.21V827.13h-19.11V717.29A90.64,90.64,0,0,0,2490.49,649.71Zm-8.82-53.07a65.43,65.43,0,0,0-65.35-65.35H2401.2V654.92l.45,5.58,5.44.79c.45.08.9.16,1.29.2a65.4,65.4,0,0,0,73.29-64.85Z" transform="translate(-149.23 -512.08)"/><path class="cls-3" d="M2562.53,827.1v-315h19.11v315Z" transform="translate(-149.23 -512.08)"/><path class="cls-3" d="M2623.48,531.19v130H2717v19.11h-93.48V808H2724.7v19.11H2604.38v-315H2724.7v19.11Z" transform="translate(-149.23 -512.08)"/></g></svg>

<?xml version="1.0" encoding="UTF-8" standalone="no"?>
<!DOCTYPE svg PUBLIC "-//W3C//DTD SVG 1.1//EN" "http://www.w3.org/Graphics/SVG/1.1/DTD/svg11.dtd">
<svg width="100%" height="100%" viewBox="0 0 2576 1030" version="1.1" xmlns="http://www.w3.org/2000/svg" xmlns:xlink="http://www.w3.org/1999/xlink" xml:space="preserve" xmlns:serif="http://www.serif.com/" style="fill-rule:evenodd;clip-rule:evenodd;stroke-linejoin:round;stroke-miterlimit:2;">
    <g transform="matrix(1,0,0,1,-149.23,-512.08)">
        <path d="M2126.62,1305.39L1971.49,1136.49C1957.25,1121.01 1934.17,1121.01 1919.92,1136.49C1905.67,1151.97 1905.75,1177.1 1919.92,1192.58L2012.92,1293.77L1932.2,1293.77L1787.75,1136.49C1773.5,1121.01 1750.43,1121.01 1736.18,1136.49C1721.93,1151.97 1722.01,1177.1 1736.18,1192.58L1829.18,1293.77L766.73,1263.38C746.61,1263.38 737.28,1303.93 737.28,1325.83C737.28,1347.73 741.03,1383.72 761.14,1383.72L1829.24,1373.08L1736.24,1474.28C1722.07,1489.76 1722.07,1514.87 1736.24,1530.36C1742.77,1537.74 1752.17,1541.97 1762.03,1541.97C1771.88,1541.97 1781.28,1537.74 1787.81,1530.36L1932.26,1373.08L2013,1373.08L1920,1474.28C1905.83,1489.76 1905.83,1514.87 1920,1530.36C1926.53,1537.74 1935.93,1541.97 1945.79,1541.97C1955.64,1541.97 1965.04,1537.74 1971.57,1530.36L2126.7,1361.47C2140.87,1346 2140.87,1320.87 2126.62,1305.39Z" style="fill:rgb(255,33,77);fill-rule:nonzero;"/>
    </g>
    <g>
        <g transform="matrix(1,0,0,1,-52.792,-500.734)">
            <path d="M345.12,512.15L260.77,827.15L237.47,827.15L149.23,512.15L169.07,512.15L249,797.34L325.39,512.15L345.12,512.15Z" style="fill:rgb(81,118,210);fill-rule:nonzero;"/>
        </g>
        <g transform="matrix(1,0,0,1,-52.792,-500.734)">
            <path d="M682.56,669.81C682.56,756.55 611.99,827.13 525.25,827.13C438.51,827.13 367.93,756.55 367.93,669.81C367.93,583.07 438.5,512.5 525.25,512.5C612,512.5 682.56,583.07 682.56,669.81ZM663.45,669.81C663.45,593.6 601.45,531.6 525.25,531.6C449.05,531.6 387,593.6 387,669.81C387,746.02 449,808 525.25,808C601.5,808 663.45,746 663.45,669.81Z" style="fill:rgb(81,118,210);fill-rule:nonzero;"/>
        </g>
        <g transform="matrix(1,0,0,1,-52.792,-500.734)">
            <rect x="705.43" y="512.1" width="19.11" height="315" style="fill:rgb(81,118,210);fill-rule:nonzero;"/>
        </g>
        <g transform="matrix(1,0,0,1,-52.792,-500.734)">
            <path d="M855.68,649.71L850.74,645.31L845.57,651.63C829.562,670.342 806.125,681.118 781.5,681.09C778.81,681.09 775.89,680.83 773.38,680.59L766.38,679.9L766.38,827.12L747.28,827.12L747.28,512.12L781.5,512.12C781.566,512.12 781.632,512.12 781.697,512.12C827.932,512.12 865.977,550.165 865.977,596.4C865.977,605.794 864.407,615.123 861.33,624L859.86,628.28L863.41,631.07C889.835,651.831 905.242,683.675 905.12,717.28L905.12,827.13L886,827.13L886,717.29C885.974,691.488 874.936,666.885 855.68,649.71ZM846.86,596.64C846.816,560.803 817.337,531.328 781.5,531.29L766.38,531.29L766.38,654.92L766.83,660.5L772.27,661.29C772.73,661.37 773.17,661.45 773.57,661.49C776.188,661.808 778.823,661.968 781.46,661.968C817.31,661.968 846.82,632.49 846.86,596.64Z" style="fill:rgb(81,118,210);fill-rule:nonzero;"/>
        </g>
        <g transform="matrix(1,0,0,1,-52.792,-500.734)">
            <path d="M1081.82,512.31L1081.82,808L1179.33,808L1179.33,827.11L1062.71,827.11L1062.71,512.31L1081.82,512.31Z" style="fill:rgb(81,118,210);fill-rule:nonzero;"/>
        </g>
        <g transform="matrix(1,0,0,1,-52.792,-500.734)">
            <path d="M1352.79,744.27L1244.2,744.27L1222,827.15L1202.22,827.15L1286.6,512.2L1307.6,512.09L1395.84,827.15L1376,827.15L1352.79,744.28L1352.79,744.27ZM1249.32,725.16L1347.44,725.16L1297.28,546.16L1249.32,725.16Z" style="fill:rgb(81,118,210);fill-rule:nonzero;"/>
        </g>
        <g transform="matrix(1,0,0,1,-52.792,-500.734)">
            <path d="M1704.77,512.24L1704.77,531.37C1631.41,534.71 1572.77,595.43 1572.77,669.6C1572.8,739.216 1625.35,798.52 1694.46,806.93L1701.59,807.8L1701.59,680.38L1647.59,680.38L1647.59,661.27L1720.67,661.27L1720.67,827L1711.12,827C1624.28,827 1553.63,756.37 1553.63,669.55C1553.65,584.89 1620.87,515.59 1704.77,512.24Z" style="fill:rgb(81,118,210);fill-rule:nonzero;"/>
        </g>
        <g transform="matrix(1,0,0,1,-52.792,-500.734)">
            <path d="M1894.12,744.27L1785.54,744.27L1763.33,827.15L1743.55,827.15L1827.93,512.2L1848.93,512.09L1937.17,827.15L1917.34,827.15L1894.12,744.28L1894.12,744.27ZM1790.66,725.16L1888.77,725.16L1838.62,546.16L1790.66,725.16Z" style="fill:rgb(81,118,210);fill-rule:nonzero;"/>
        </g>
        <g transform="matrix(1,0,0,1,-52.792,-500.734)">
            <path d="M1979.1,512.31L1979.1,808L2076.61,808L2076.61,827.11L1960,827.11L1960,512.31L1979.1,512.31Z" style="fill:rgb(81,118,210);fill-rule:nonzero;"/>
        </g>
        <g transform="matrix(1,0,0,1,-200.285,-500.734)">
            <path d="M2258.1,531.19L2258.1,661.19L2351.57,661.19L2351.57,680.3L2258.1,680.3L2258.1,808L2359.31,808L2359.31,827.11L2239,827.11L2239,512.11L2359.32,512.11L2359.32,531.22L2258.1,531.19Z" style="fill:rgb(81,118,210);fill-rule:nonzero;"/>
        </g>
        <g transform="matrix(1,0,0,1,-200.285,-500.734)">
            <path d="M2490.49,649.71L2485.56,645.31L2480.38,651.63C2464.38,670.341 2440.94,681.118 2416.32,681.09C2413.62,681.09 2410.71,680.83 2408.19,680.59L2401.19,679.9L2401.19,827.12L2382.08,827.12L2382.08,512.12L2416.31,512.12C2416.39,512.12 2416.46,512.12 2416.54,512.12C2462.76,512.12 2500.8,550.156 2500.8,596.38C2500.8,605.782 2499.22,615.118 2496.14,624L2494.68,628.28L2498.22,631.07C2524.65,651.828 2540.06,683.674 2539.93,717.28L2539.93,827.13L2520.82,827.13L2520.82,717.29C2520.8,691.485 2509.75,666.88 2490.49,649.71ZM2481.67,596.64C2481.63,560.807 2452.15,531.334 2416.32,531.29L2401.2,531.29L2401.2,654.92L2401.65,660.5L2407.09,661.29C2407.54,661.37 2407.99,661.45 2408.38,661.49C2411,661.808 2413.63,661.968 2416.27,661.968C2452.12,661.968 2481.63,632.49 2481.67,596.64Z" style="fill:rgb(81,118,210);fill-rule:nonzero;"/>
        </g>
        <g transform="matrix(1,0,0,1,-200.285,-500.734)">
            <rect x="2562.53" y="512.1" width="19.11" height="315" style="fill:rgb(81,118,210);fill-rule:nonzero;"/>
        </g>
        <g transform="matrix(1,0,0,1,-200.285,-500.734)">
            <path d="M2623.48,531.19L2623.48,661.19L2717,661.19L2717,680.3L2623.52,680.3L2623.52,808L2724.7,808L2724.7,827.11L2604.38,827.11L2604.38,512.11L2724.7,512.11L2724.7,531.22L2623.48,531.19Z" style="fill:rgb(81,118,210);fill-rule:nonzero;"/>
        </g>
    </g>
</svg>
